images/01/layer1.svg

<svg fill="none" height="49" viewBox="0 0 71 49" width="71" xmlns="http://www.w3.org/2000/svg"><path clip-rule="evenodd" d="m71 24.5c0 13.5265-11.0164 24.5-24.5958 24.5-3.9122 0-7.5991-.8952-10.9264-2.553-3.2829 1.6129-7.0149 2.553-10.8813 2.553-13.5801 0-24.5965-10.9735-24.5965-24.5s11.0164-24.5 24.5958-24.5c3.9122 0 7.5991.895876 10.8813 2.50819 3.283-1.612314 7.0149-2.50819 10.9271-2.50819 13.5794 0 24.5958 10.9735 24.5958 24.5zm-4.8559 0c0-10.8389-8.8586-19.6624-19.7399-19.6624-2.0684 0-4.0916.31336-5.9354.89587 3.777 3.13491 6.5201 7.34513 7.8686 12.18273h-5.0811c-1.4272-4.0384-4.1436-7.4997-7.7334-9.85398-3.5525 2.32878-6.2507 5.77828-7.6892 9.85398h-5.081c1.3306-4.7705 4.0725-9.03132 7.8686-12.22759-1.9373-.59486-3.9532-.89684-5.9804-.89588-10.8813 0-19.73935 8.82347-19.73935 19.66237s8.85805 19.6631 19.73935 19.6631c2.0683 0 4.0465-.3133 5.8903-.8959-4.9009-4.0756-8.0931-10.0776-8.5878-16.796h11.6906v4.7921l-5.7108.0897c1.4841 3.9417 4.1372 7.2567 7.5997 9.5406 3.4617-2.2845 6.1148-5.5989 7.599-9.5406l-5.7109-.0897v-4.7921h11.6913c-.5398 6.7184-3.777 12.6755-8.6786 16.7512 1.8889.5825 3.9121.9407 5.9805.9407 10.9263.0449 19.7399-8.7344 19.7399-19.6182z" fill="#555" fill-rule="evenodd"/></svg>

<svg xmlns="http://www.w3.org/2000/svg" width="71" height="49" viewBox="0 0 71 49" fill="none"><path fill-rule="evenodd" clip-rule="evenodd" d="M71 24.5C71 38.0265 59.9836 49 46.4042 49C42.492 49 38.8051 48.1048 35.4778 46.447C32.1949 48.0599 28.4629 49 24.5965 49C11.0164 49 0 38.0265 0 24.5C0 10.9735 11.0164 0 24.5958 0C28.508 0 32.1949 0.895876 35.4771 2.50819C38.7601 0.895876 42.492 0 46.4042 0C59.9836 0 71 10.9735 71 24.5ZM66.1441 24.5C66.1441 13.6611 57.2855 4.8376 46.4042 4.8376C44.3358 4.8376 42.3126 5.15096 40.4688 5.73347C44.2458 8.86838 46.9889 13.0786 48.3374 17.9162H43.2563C41.8291 13.8778 39.1127 10.4165 35.5229 8.06222C31.9704 10.391 29.2722 13.8405 27.8337 17.9162H22.7527C24.0833 13.1457 26.8252 8.88488 30.6213 5.68861C28.684 5.09375 26.6681 4.79177 24.6409 4.79273C13.7596 4.79273 4.90155 13.6162 4.90155 24.4551C4.90155 35.294 13.7596 44.1182 24.6409 44.1182C26.7092 44.1182 28.6874 43.8049 30.5312 43.2223C25.6303 39.1467 22.4381 33.1447 21.9434 26.4263H33.634V31.2184L27.9232 31.3081C29.4073 35.2498 32.0604 38.5648 35.5229 40.8487C38.9846 38.5642 41.6377 35.2498 43.1219 31.3081L37.411 31.2184V26.4263H49.1023C48.5625 33.1447 45.3253 39.1018 40.4237 43.1775C42.3126 43.76 44.3358 44.1182 46.4042 44.1182C57.3305 44.1631 66.1441 35.3838 66.1441 24.5Z" fill="#555555"/></svg>
